images/16758064.svg

<?xml version="1.0" encoding="UTF-8"?>
<svg xmlns="http://www.w3.org/2000/svg" xmlns:xlink="http://www.w3.org/1999/xlink" width="300pt" height="300pt" viewBox="0 0 300 300" version="1.1">
<defs>
<g>
<symbol overflow="visible" id="glyph0-0">
<path style="stroke:none;" d="M 0.453125 1.59375 L 0.453125 -6.34375 L 4.953125 -6.34375 L 4.953125 1.59375 Z M 0.953125 1.09375 L 4.453125 1.09375 L 4.453125 -5.84375 L 0.953125 -5.84375 Z M 0.953125 1.09375 "/>
</symbol>
<symbol overflow="visible" id="glyph0-1">
<path style="stroke:none;" d="M 3.546875 -5.953125 C 2.898438 -5.953125 2.382812 -5.710938 2 -5.234375 C 1.625 -4.753906 1.4375 -4.101562 1.4375 -3.28125 C 1.4375 -2.445312 1.625 -1.789062 2 -1.3125 C 2.382812 -0.832031 2.898438 -0.59375 3.546875 -0.59375 C 4.191406 -0.59375 4.703125 -0.832031 5.078125 -1.3125 C 5.453125 -1.789062 5.640625 -2.445312 5.640625 -3.28125 C 5.640625 -4.101562 5.453125 -4.753906 5.078125 -5.234375 C 4.703125 -5.710938 4.191406 -5.953125 3.546875 -5.953125 Z M 3.546875 -6.6875 C 4.460938 -6.6875 5.195312 -6.375 5.75 -5.75 C 6.300781 -5.132812 6.578125 -4.3125 6.578125 -3.28125 C 6.578125 -2.238281 6.300781 -1.410156 5.75 -0.796875 C 5.195312 -0.179688 4.460938 0.125 3.546875 0.125 C 2.617188 0.125 1.878906 -0.179688 1.328125 -0.796875 C 0.773438 -1.410156 0.5 -2.238281 0.5 -3.28125 C 0.5 -4.3125 0.773438 -5.132812 1.328125 -5.75 C 1.878906 -6.375 2.617188 -6.6875 3.546875 -6.6875 Z M 3.546875 -6.6875 "/>
</symbol>
<symbol overflow="visible" id="glyph0-2">
<path style="stroke:none;" d="M 0.890625 -6.5625 L 1.765625 -6.5625 L 1.765625 -3.875 L 5 -3.875 L 5 -6.5625 L 5.890625 -6.5625 L 5.890625 0 L 5 0 L 5 -3.125 L 1.765625 -3.125 L 1.765625 0 L 0.890625 0 Z M 0.890625 -6.5625 "/>
</symbol>
</g>
</defs>
<g id="surface37357">
<rect x="0" y="0" width="300" height="300" style="fill:rgb(100%,100%,100%);fill-opacity:1;stroke:none;"/>
<path style="fill:none;stroke-width:1;stroke-linecap:butt;stroke-linejoin:miter;stroke:rgb(0%,0%,0%);stroke-opacity:1;stroke-miterlimit:10;" d="M 107.671875 165.582031 L 107.671875 165.582031 M 108.855469 168.339844 L 109.726562 167.769531 M 110.035156 171.101562 L 111.777344 169.957031 M 111.214844 173.859375 L 113.832031 172.148438 M 112.394531 176.617188 L 115.882812 174.335938 M 113.574219 179.375 L 117.9375 176.523438 M 114.753906 182.132812 L 119.988281 178.710938 M 115.933594 184.890625 L 122.042969 180.898438 M 117.113281 187.648438 L 124.09375 183.085938 M 117.328125 188.15625 L 124.472656 183.488281 "/>
<path style="fill:none;stroke-width:1.2;stroke-linecap:butt;stroke-linejoin:miter;stroke:rgb(0%,0%,0%);stroke-opacity:1;stroke-miterlimit:10;" d="M 107.671875 165.582031 L 96.761719 187.15625 "/>
<path style="fill:none;stroke-width:1.2;stroke-linecap:butt;stroke-linejoin:miter;stroke:rgb(0%,0%,0%);stroke-opacity:1;stroke-miterlimit:10;" d="M 94.445312 145.34375 L 107.671875 165.582031 "/>
<path style="fill:none;stroke-width:1.2;stroke-linecap:butt;stroke-linejoin:miter;stroke:rgb(0%,0%,0%);stroke-opacity:1;stroke-miterlimit:10;" d="M 131.816406 164.246094 L 107.671875 165.582031 "/>
<path style="fill:none;stroke-width:1.2;stroke-linecap:butt;stroke-linejoin:miter;stroke:rgb(0%,0%,0%);stroke-opacity:1;stroke-miterlimit:10;" d="M 96.761719 187.15625 L 72.617188 188.492188 "/>
<path style="fill:none;stroke-width:1.2;stroke-linecap:butt;stroke-linejoin:miter;stroke:rgb(0%,0%,0%);stroke-opacity:1;stroke-miterlimit:10;" d="M 72.617188 188.492188 L 59.390625 168.253906 "/>
<path style="fill:none;stroke-width:1.2;stroke-linecap:butt;stroke-linejoin:miter;stroke:rgb(0%,0%,0%);stroke-opacity:1;stroke-miterlimit:10;" d="M 59.390625 168.253906 L 70.304688 146.679688 "/>
<path style="fill:none;stroke-width:1.2;stroke-linecap:butt;stroke-linejoin:miter;stroke:rgb(0%,0%,0%);stroke-opacity:1;stroke-miterlimit:10;" d="M 59.390625 168.253906 L 47.320312 168.921875 "/>
<path style="fill:none;stroke-width:1.2;stroke-linecap:butt;stroke-linejoin:miter;stroke:rgb(100%,0%,0%);stroke-opacity:1;stroke-miterlimit:10;" d="M 47.320312 168.921875 L 35.25 169.589844 "/>
<path style="fill:none;stroke-width:1.2;stroke-linecap:butt;stroke-linejoin:miter;stroke:rgb(0%,0%,0%);stroke-opacity:1;stroke-miterlimit:10;" d="M 70.304688 146.679688 L 94.445312 145.34375 "/>
<path style="fill:none;stroke-width:1;stroke-linecap:butt;stroke-linejoin:miter;stroke:rgb(0%,0%,0%);stroke-opacity:1;stroke-miterlimit:10;" d="M 70.304688 146.679688 L 70.304688 146.679688 M 71.175781 143.808594 L 70.140625 143.683594 M 72.042969 140.9375 L 69.972656 140.6875 M 72.914062 138.066406 L 69.804688 137.695312 M 73.78125 135.195312 L 69.640625 134.699219 M 74.652344 132.324219 L 69.472656 131.703125 M 75.519531 129.453125 L 69.308594 128.707031 M 76.390625 126.582031 L 69.140625 125.710938 M 77.257812 123.710938 L 68.976562 122.71875 M 77.417969 123.179688 L 68.945312 122.164062 "/>
<path style="fill:none;stroke-width:1.2;stroke-linecap:butt;stroke-linejoin:miter;stroke:rgb(0%,0%,0%);stroke-opacity:1;stroke-miterlimit:10;" d="M 70.304688 146.679688 L 47.164062 139.679688 "/>
<path style="fill:none;stroke-width:1.2;stroke-linecap:butt;stroke-linejoin:miter;stroke:rgb(0%,0%,0%);stroke-opacity:1;stroke-miterlimit:10;" d="M 94.445312 145.34375 L 105.359375 123.769531 "/>
<path style="fill:none;stroke-width:1.2;stroke-linecap:butt;stroke-linejoin:miter;stroke:rgb(0%,0%,0%);stroke-opacity:1;stroke-miterlimit:10;" d="M 105.359375 123.769531 L 129.5 122.433594 "/>
<path style="fill:none;stroke-width:1.2;stroke-linecap:butt;stroke-linejoin:miter;stroke:rgb(0%,0%,0%);stroke-opacity:1;stroke-miterlimit:10;" d="M 129.5 122.433594 L 142.730469 142.671875 "/>
<path style="fill:none;stroke-width:1.2;stroke-linecap:butt;stroke-linejoin:miter;stroke:rgb(0%,0%,0%);stroke-opacity:1;stroke-miterlimit:10;" d="M 142.730469 142.671875 L 131.816406 164.246094 "/>
<path style=" stroke:none;fill-rule:nonzero;fill:rgb(0%,0%,0%);fill-opacity:1;" d="M 142.730469 142.671875 L 152.125 129.199219 L 144.097656 126.300781 Z M 142.730469 142.671875 "/>
<path style="fill:none;stroke-width:1.2;stroke-linecap:butt;stroke-linejoin:miter;stroke:rgb(0%,0%,0%);stroke-opacity:1;stroke-miterlimit:10;" d="M 166.871094 141.335938 L 142.730469 142.671875 "/>
<path style="fill:none;stroke-width:1.2;stroke-linecap:butt;stroke-linejoin:miter;stroke:rgb(0%,0%,0%);stroke-opacity:1;stroke-miterlimit:10;" d="M 131.816406 164.246094 L 145.042969 184.484375 "/>
<path style="fill:none;stroke-width:1.2;stroke-linecap:butt;stroke-linejoin:miter;stroke:rgb(0%,0%,0%);stroke-opacity:1;stroke-miterlimit:10;" d="M 145.042969 184.484375 L 169.183594 183.148438 "/>
<path style="fill:none;stroke-width:1.2;stroke-linecap:butt;stroke-linejoin:miter;stroke:rgb(0%,0%,0%);stroke-opacity:1;stroke-miterlimit:10;" d="M 169.183594 183.148438 L 180.097656 161.574219 "/>
<path style="fill:none;stroke-width:1.2;stroke-linecap:butt;stroke-linejoin:miter;stroke:rgb(0%,0%,0%);stroke-opacity:1;stroke-miterlimit:10;" d="M 165.199219 178.425781 L 173.929688 161.164062 "/>
<path style="fill:none;stroke-width:1.2;stroke-linecap:butt;stroke-linejoin:miter;stroke:rgb(0%,0%,0%);stroke-opacity:1;stroke-miterlimit:10;" d="M 180.097656 161.574219 L 166.871094 141.335938 "/>
<path style="fill:none;stroke-width:1.2;stroke-linecap:butt;stroke-linejoin:miter;stroke:rgb(0%,0%,0%);stroke-opacity:1;stroke-miterlimit:10;" d="M 204.238281 160.238281 L 180.097656 161.574219 "/>
<path style="fill:none;stroke-width:1.2;stroke-linecap:butt;stroke-linejoin:miter;stroke:rgb(0%,0%,0%);stroke-opacity:1;stroke-miterlimit:10;" d="M 166.871094 141.335938 L 177.785156 119.761719 "/>
<path style="fill:none;stroke-width:1;stroke-linecap:butt;stroke-linejoin:miter;stroke:rgb(0%,0%,0%);stroke-opacity:1;stroke-miterlimit:10;" d="M 166.871094 141.335938 L 166.871094 141.335938 M 166.292969 138.394531 L 164.894531 139.078125 M 165.714844 135.449219 L 162.917969 136.824219 M 165.136719 132.503906 L 160.941406 134.566406 M 164.558594 129.5625 L 158.960938 132.308594 M 163.980469 126.617188 L 156.984375 130.054688 M 163.703125 125.21875 L 156.046875 128.980469 "/>
<path style="fill:none;stroke-width:1.2;stroke-linecap:butt;stroke-linejoin:miter;stroke:rgb(0%,0%,0%);stroke-opacity:1;stroke-miterlimit:10;" d="M 177.785156 119.761719 L 201.925781 118.425781 "/>
<path style="fill:none;stroke-width:1.2;stroke-linecap:butt;stroke-linejoin:miter;stroke:rgb(0%,0%,0%);stroke-opacity:1;stroke-miterlimit:10;" d="M 201.925781 118.425781 L 215.152344 138.664062 "/>
<path style="fill:none;stroke-width:1.2;stroke-linecap:butt;stroke-linejoin:miter;stroke:rgb(0%,0%,0%);stroke-opacity:1;stroke-miterlimit:10;" d="M 215.152344 138.664062 L 204.238281 160.238281 "/>
<path style="fill:none;stroke-width:1;stroke-linecap:butt;stroke-linejoin:miter;stroke:rgb(0%,0%,0%);stroke-opacity:1;stroke-miterlimit:10;" d="M 215.152344 138.664062 L 215.152344 138.664062 M 216.953125 136.265625 L 216.019531 135.792969 M 218.75 133.863281 L 216.890625 132.921875 M 220.550781 131.460938 L 217.757812 130.050781 M 222.347656 129.0625 L 218.625 127.179688 M 224.148438 126.660156 L 219.496094 124.308594 M 225.945312 124.257812 L 220.363281 121.433594 M 227.742188 121.859375 L 221.230469 118.5625 M 229.542969 119.457031 L 222.097656 115.691406 M 229.875 119.015625 L 222.257812 115.164062 "/>
<path style="fill:none;stroke-width:1.2;stroke-linecap:butt;stroke-linejoin:miter;stroke:rgb(0%,0%,0%);stroke-opacity:1;stroke-miterlimit:10;" d="M 239.292969 137.328125 L 215.152344 138.664062 "/>
<path style="fill:none;stroke-width:1.2;stroke-linecap:butt;stroke-linejoin:miter;stroke:rgb(0%,0%,0%);stroke-opacity:1;stroke-miterlimit:10;" d="M 204.238281 160.238281 L 217.464844 180.480469 "/>
<path style="fill:none;stroke-width:1.2;stroke-linecap:butt;stroke-linejoin:miter;stroke:rgb(0%,0%,0%);stroke-opacity:1;stroke-miterlimit:10;" d="M 217.464844 180.480469 L 241.609375 179.144531 "/>
<path style="fill:none;stroke-width:1.2;stroke-linecap:butt;stroke-linejoin:miter;stroke:rgb(0%,0%,0%);stroke-opacity:1;stroke-miterlimit:10;" d="M 241.609375 179.144531 L 252.519531 157.566406 "/>
<path style="fill:none;stroke-width:1.2;stroke-linecap:butt;stroke-linejoin:miter;stroke:rgb(0%,0%,0%);stroke-opacity:1;stroke-miterlimit:10;" d="M 241.609375 179.144531 L 264.75 186.144531 "/>
<path style="fill:none;stroke-width:1.2;stroke-linecap:butt;stroke-linejoin:miter;stroke:rgb(0%,0%,0%);stroke-opacity:1;stroke-miterlimit:10;" d="M 241.609375 179.144531 L 238.730469 203.148438 "/>
<path style="fill:none;stroke-width:1.2;stroke-linecap:butt;stroke-linejoin:miter;stroke:rgb(0%,0%,0%);stroke-opacity:1;stroke-miterlimit:10;" d="M 252.519531 157.566406 L 239.292969 137.328125 "/>
<path style="fill:none;stroke-width:1.2;stroke-linecap:butt;stroke-linejoin:miter;stroke:rgb(0%,0%,0%);stroke-opacity:1;stroke-miterlimit:10;" d="M 228.449219 115.535156 L 221.832031 105.414062 "/>
<path style="fill:none;stroke-width:1.2;stroke-linecap:butt;stroke-linejoin:miter;stroke:rgb(100%,0%,0%);stroke-opacity:1;stroke-miterlimit:10;" d="M 221.832031 105.414062 L 215.21875 95.292969 "/>
<path style="fill:none;stroke-width:1.2;stroke-linecap:butt;stroke-linejoin:miter;stroke:rgb(0%,0%,0%);stroke-opacity:1;stroke-miterlimit:10;" d="M 223.683594 118.644531 L 217.070312 108.527344 "/>
<path style="fill:none;stroke-width:1.2;stroke-linecap:butt;stroke-linejoin:miter;stroke:rgb(100%,0%,0%);stroke-opacity:1;stroke-miterlimit:10;" d="M 217.070312 108.527344 L 210.457031 98.40625 "/>
<path style="fill:none;stroke-width:1.2;stroke-linecap:butt;stroke-linejoin:miter;stroke:rgb(0%,0%,0%);stroke-opacity:1;stroke-miterlimit:10;" d="M 226.066406 117.089844 L 238.136719 116.421875 "/>
<path style="fill:none;stroke-width:1.2;stroke-linecap:butt;stroke-linejoin:miter;stroke:rgb(100%,0%,0%);stroke-opacity:1;stroke-miterlimit:10;" d="M 238.136719 116.421875 L 250.207031 115.753906 "/>
<path style=" stroke:none;fill-rule:nonzero;fill:rgb(100%,100%,100%);fill-opacity:1;" d="M 204.839844 91.351562 L 212.839844 91.351562 L 212.839844 102.351562 L 204.839844 102.351562 Z M 204.839844 91.351562 "/>
<g style="fill:rgb(100%,0%,0%);fill-opacity:1;">
  <use xlink:href="#glyph0-1" x="204.839844" y="100.014648"/>
</g>
<path style=" stroke:none;fill-rule:nonzero;fill:rgb(100%,100%,100%);fill-opacity:1;" d="M 243.207031 110.253906 L 258.207031 110.253906 L 258.207031 121.253906 L 243.207031 121.253906 Z M 243.207031 110.253906 "/>
<g style="fill:rgb(100%,0%,0%);fill-opacity:1;">
  <use xlink:href="#glyph0-1" x="243.207031" y="118.916992"/>
  <use xlink:href="#glyph0-2" x="250.548828" y="118.916992"/>
</g>
<path style="fill:none;stroke-width:1.2;stroke-linecap:butt;stroke-linejoin:miter;stroke:rgb(0%,0%,0%);stroke-opacity:1;stroke-miterlimit:10;" d="M 47.164062 139.679688 L 44.410156 127.90625 "/>
<path style="fill:none;stroke-width:1.2;stroke-linecap:butt;stroke-linejoin:miter;stroke:rgb(100%,0%,0%);stroke-opacity:1;stroke-miterlimit:10;" d="M 44.410156 127.90625 L 41.65625 116.136719 "/>
<path style=" stroke:none;fill-rule:nonzero;fill:rgb(100%,100%,100%);fill-opacity:1;" d="M 34.65625 110.636719 L 49.65625 110.636719 L 49.65625 121.636719 L 34.65625 121.636719 Z M 34.65625 110.636719 "/>
<g style="fill:rgb(100%,0%,0%);fill-opacity:1;">
  <use xlink:href="#glyph0-2" x="34.65625" y="119.299805"/>
  <use xlink:href="#glyph0-1" x="41.670898" y="119.299805"/>
</g>
<path style=" stroke:none;fill-rule:nonzero;fill:rgb(100%,100%,100%);fill-opacity:1;" d="M 20.25 164.089844 L 35.25 164.089844 L 35.25 175.089844 L 20.25 175.089844 Z M 20.25 164.089844 "/>
<g style="fill:rgb(100%,0%,0%);fill-opacity:1;">
  <use xlink:href="#glyph0-2" x="20.25" y="172.75293"/>
  <use xlink:href="#glyph0-1" x="27.264648" y="172.75293"/>
</g>
</g>
</svg>

<svg xmlns="http://www.w3.org/2000/svg" xmlns:xlink="http://www.w3.org/1999/xlink" width="300pt" height="300pt" viewBox="0 0 300 300"><defs><symbol overflow="visible"><path d="M.453 1.594v-7.938h4.5v7.938zm.5-.5h3.5v-6.938h-3.5zm0 0"/></symbol><symbol overflow="visible" id="a"><path d="M3.547-5.953c-.65 0-1.164.242-1.547.72-.375.48-.563 1.13-.563 1.952 0 .835.188 1.49.563 1.967.383.48.898.72 1.547.72.644 0 1.156-.24 1.53-.72.376-.476.564-1.132.564-1.968 0-.822-.187-1.474-.562-1.954-.375-.477-.887-.72-1.53-.72zm0-.734c.914 0 1.648.312 2.203.937.55.617.828 1.438.828 2.47 0 1.042-.277 1.87-.828 2.483-.555.617-1.29.922-2.203.922-.93 0-1.668-.305-2.22-.922C.774-1.41.5-2.237.5-3.28c0-1.033.273-1.853.828-2.47.55-.625 1.29-.938 2.22-.938zm0 0"/></symbol><symbol overflow="visible" id="b"><path d="M.89-6.563h.876v2.688H5v-2.688h.89V0H5v-3.125H1.766V0H.89zm0 0"/></symbol></defs><g><path fill="#fff" d="M0 0h300v300H0z"/><path d="M107.672 165.582m1.183 2.758l.872-.57m.308 3.332l1.742-1.145m-.562 3.902l2.617-1.712m-1.437 4.47l3.488-2.282m-2.31 5.04l4.365-2.853m-3.184 5.61l5.234-3.422m-4.054 6.18l6.11-3.992m-4.93 6.75l6.98-4.562m-6.766 5.07l7.145-4.668" stroke="#000" stroke-miterlimit="10" fill="none"/><path d="M107.672 165.582l-10.91 21.574M94.445 145.344l13.227 20.238M131.816 164.246l-24.144 1.336M96.762 187.156l-24.145 1.336M72.617 188.492L59.39 168.254M59.39 168.254l10.915-21.574M59.39 168.254l-12.07.668" stroke-width="1.2" stroke="#000" stroke-miterlimit="10" fill="none"/><path d="M47.32 168.922l-12.07.668" stroke-width="1.2" stroke="#f00" stroke-miterlimit="10" fill="none"/><path d="M70.305 146.68l24.14-1.336" stroke-width="1.2" stroke="#000" stroke-miterlimit="10" fill="none"/><path d="M70.305 146.68m.87-2.87l-1.034-.126m1.903-2.746l-2.07-.25m2.94-2.622l-3.108-.37m3.976-2.5l-4.14-.497m5.012-2.376l-5.18-.62m6.048-2.25l-6.21-.747m7.08-2.125l-7.25-.87m8.118-2l-8.28-.993m8.44.46l-8.473-1.016" stroke="#000" stroke-miterlimit="10" fill="none"/><path d="M70.305 146.68l-23.14-7M94.445 145.344l10.914-21.574M105.36 123.77l24.14-1.336M129.5 122.434l13.23 20.238M142.73 142.672l-10.914 21.574" stroke-width="1.2" stroke="#000" stroke-miterlimit="10" fill="none"/><path d="M142.73 142.672l9.395-13.473-8.027-2.9zm0 0"/><path d="M166.87 141.336l-24.14 1.336M131.816 164.246l13.227 20.238M145.043 184.484l24.14-1.336M169.184 183.148l10.914-21.574M165.2 178.426l8.73-17.262M180.098 161.574l-13.227-20.238M204.238 160.238l-24.14 1.336M166.87 141.336l10.915-21.574" stroke-width="1.2" stroke="#000" stroke-miterlimit="10" fill="none"/><path d="M166.87 141.336m-.577-2.94l-1.398.682m.82-3.63l-2.797 1.376m2.22-4.32l-4.197 2.062m3.62-5.004l-5.6 2.747m5.02-5.693l-6.996 3.438m6.72-4.836l-7.657 3.76" stroke="#000" stroke-miterlimit="10" fill="none"/><path d="M177.785 119.762l24.14-1.336M201.926 118.426l13.226 20.238M215.152 138.664l-10.914 21.574" stroke-width="1.2" stroke="#000" stroke-miterlimit="10" fill="none"/><path d="M215.152 138.664m1.8-2.398l-.932-.473m2.73-1.93l-1.86-.94m3.66-1.462l-2.792-1.41m4.59-.988l-3.723-1.882m5.523-.52l-4.652-2.35m6.45-.052l-5.583-2.824m7.38.425l-6.513-3.297m8.313.894l-7.445-3.766m7.777 3.326l-7.617-3.852" stroke="#000" stroke-miterlimit="10" fill="none"/><path d="M239.293 137.328l-24.14 1.336M204.238 160.238l13.227 20.242M217.465 180.48l24.144-1.335M241.61 179.145l10.91-21.58M241.61 179.145l23.14 7M241.61 179.145l-2.88 24.003M252.52 157.566l-13.227-20.238M228.45 115.535l-6.618-10.12" stroke-width="1.2" stroke="#000" stroke-miterlimit="10" fill="none"/><path d="M221.832 105.414l-6.613-10.12" stroke-width="1.2" stroke="#f00" stroke-miterlimit="10" fill="none"/><path d="M223.684 118.645l-6.614-10.118" stroke-width="1.2" stroke="#000" stroke-miterlimit="10" fill="none"/><path d="M217.07 108.527l-6.613-10.12" stroke-width="1.2" stroke="#f00" stroke-miterlimit="10" fill="none"/><path d="M226.066 117.09l12.07-.668" stroke-width="1.2" stroke="#000" stroke-miterlimit="10" fill="none"/><path d="M238.137 116.422l12.07-.668" stroke-width="1.2" stroke="#f00" stroke-miterlimit="10" fill="none"/><path d="M204.84 91.352h8v11h-8zm0 0" fill="#fff"/><use xlink:href="#a" x="204.84" y="100.015" fill="#f00"/><path d="M243.207 110.254h15v11h-15zm0 0" fill="#fff"/><g fill="#f00"><use xlink:href="#a" x="243.207" y="118.917"/><use xlink:href="#b" x="250.549" y="118.917"/></g><path d="M47.164 139.68l-2.754-11.774" stroke-width="1.2" stroke="#000" stroke-miterlimit="10" fill="none"/><path d="M44.41 127.906l-2.754-11.77" stroke-width="1.2" stroke="#f00" stroke-miterlimit="10" fill="none"/><path d="M34.656 110.637h15v11h-15zm0 0" fill="#fff"/><g fill="#f00"><use xlink:href="#b" x="34.656" y="119.3"/><use xlink:href="#a" x="41.671" y="119.3"/></g><path d="M20.25 164.09h15v11h-15zm0 0" fill="#fff"/><g fill="#f00"><use xlink:href="#b" x="20.25" y="172.753"/><use xlink:href="#a" x="27.265" y="172.753"/></g></g></svg>
